X: 14
T: World Turned Upside Down  [2]
S:fifer Hiram Horner (1944, southwestern Pa.)
M:6/8
L:1/8
R:jig, march
N:Bayard called it a "half-air"
B:Bayard - Dance to the Fiddle, March to the Fife (1981, No. 538)
K: D
(3A/B/c/ |\
dcd A2G | FAF D3 | DFA dcd | e>de e2 (3A/B/c/ |\
dcd A2G | FAF D2g | fed cde | fdd d2 :|

